X:18665
T:When sick is it tea you want ?
S:F+J
R:Jig
O:Ireland
M:6/8
K:D
B|\
Add dcB|AdB AFG|Add cde|fdB BAF|\
Add dcB|AdB AFG|Add cde|fdc d :|*
|:fg|\
afd dc=c|BGG G2a|bge e^d=d|cAA AFG|\
Add dcB|AdB AFG|Add cde|fdc d:|


